X:1
T:Title
%%score { ( 1 4 ) | ( 2 3 ) }
L:1/8
M:6/4
K:Db
V:1 treble nm="Grand Piano"
V:4 treble 
V:2 bass 
V:3 bass 
V:1
 z4[Q:1/4=118] [FA]2 | [FA]4 [FA]2 .[CGA]4 [Gc]2 | [Ad]4 [Ad]2 [DFA]4 [A,DF]2 | %3
 [CEG]4 [CEG]2 [CGB]4 [A,CA]2 |[M:5/4] [A,DF]2- [A,DF]2- [A,DF]6 |[M:1/4] [A,FA]2 | %6
[M:6/4] [DFA]4 [DFA]2 .[CGA]4 [Gc]2 | [Ad]4 [Ad]2 [DFA]4 [A,DF]2 | %8
 [CEA]4 [CEA]2 .[A,CA]4[K:bass] [G,CE]2 |[M:5/4] [F,D]2- [F,D]2- [F,D]6 |[M:1/4] [F,D]2 | %11
[M:6/4][K:treble] [A,DF]4 [A,DF]2 [DFB]4 [DFB]2 | F2- [FB]2 c2 B4 B2 | [=Gd]4 [Gd]2 d2 c2 [DGB]2 | %14
 A12 |[M:1/4] [A,CG]2 |[M:6/4] [A,DF]4 [A,FA]2 [Fd]4 [FA]2 |[M:7/4] B4 B2 e2 d4 B2 | %18
[M:6/4] A4 d2 [Fd]2 [Ec]2 [Ge]2 |[M:5/4] [Fd]2- [Fd]2- [Fd]6 |] %20
V:2
 z4 [D,D]2 | [D,D]4 [D,D]2 z2[K:treble] B2[K:bass] [E,A,]2 | [F,A,]4 [F,A,]2 D,4 D,2 | %3
 A,,4 A,,2 A,,4 A,,2 |[M:5/4] D,2- D,2- D,6 |[M:1/4] D,2 | %6
[M:6/4] D,4 D,2 z2[K:treble] B2[K:bass] [E,A,]2 | [F,A,]4 [F,A,]2 D,4 D,2 | A,,4 A,,2 z2 G2 A,,2 | %9
[M:5/4] D,2- D,2- D,6 |[M:1/4] D,2 |[M:6/4] D,4 D,2 B,,4 B,,2 | %12
 z2[K:treble] D2 [F,EF]2 [B,DF]4 [B,DF]2 | [E,B,]4 [E,B,]2 B,2 C2 E,2 | z4 D2 E6 |[M:1/4] A,,2 | %16
[M:6/4] D,4 D,2 [D,A,]4 [D,D]2 |[M:7/4][K:treble] [G,DG]4 [G,DG]2 [G,B,G]6 [G,DG]2 | %18
[M:6/4] [A,DF]4 [A,F]2[K:bass] [A,,A,]4 [A,,A,]2 |[M:5/4] [D,A,]2- [D,A,]2- [D,A,]6 |] %20
V:3
 x6 | z6 .E,6[K:treble][K:bass] | x12 | x12 |[M:5/4] x10 |[M:1/4] x2 | %6
[M:6/4] z6 .E,6[K:treble][K:bass] | x12 | z6 .A,,6 |[M:5/4] x10 |[M:1/4] x2 |[M:6/4] x12 | %12
 .F,6[K:treble] z6 | z6 .E,6 | A,12 |[M:1/4] x2 |[M:6/4] x12 |[M:7/4][K:treble] x14 | %18
[M:6/4] x6[K:bass] x6 |[M:5/4] x10 |] %20
V:4
 x6 | x12 | x12 | x12 |[M:5/4] x10 |[M:1/4] x2 |[M:6/4] x12 | x12 | x10[K:bass] x2 |[M:5/4] x10 | %10
[M:1/4] x2 |[M:6/4][K:treble] x12 | .[C=A]6 z6 | z6 .=G6 | [CE]4 F2 G6 |[M:1/4] x2 |[M:6/4] x12 | %17
[M:7/4] x14 |[M:6/4] x12 |[M:5/4] x10 |] %20

